dist/svg/u1F920.svg

<?xml version="1.0" encoding="UTF-8"?><svg id="Layer_1" xmlns="http://www.w3.org/2000/svg" viewBox="0 0 40 40"><g><path d="M4.78075,8.40662c.05038-.35152,.33531-.70559,.63233-.70559h7.29796s-1.59754,2.04664-1.57235,2.06801l.40552,5.25487s-7.10459-4.24144-6.76346-6.61729Z" style="fill:#3a2202;"/><path d="M35.21925,8.40662c-.05038-.35152-.33531-.70559-.63233-.70559h-7.29796s1.59754,2.04664,1.57235,2.06801l-.40552,5.25487s7.10459-4.24144,6.76346-6.61729Z" style="fill:#3a2202;"/><g><circle cx="20" cy="22.48712" r="16" style="fill:#ffc84d;"/><g><ellipse cx="15.68955" cy="18.1226" rx="1.9147" ry="2.49428"/><ellipse cx="24.31045" cy="18.1226" rx="1.9147" ry="2.49428"/></g><path d="M28.73591,23.77753c.66981,0,1.21142,.59994,1.08841,1.25836-.73422,3.92965-4.85314,6.93855-9.82434,6.93855s-9.09012-3.0089-9.82434-6.93855c-.12302-.65841,.4186-1.25836,1.08841-1.25836H28.73591Z" style="fill:#ff6d00;"/><path d="M20.00005,26.09302c3.25989,0,6.27541-.8592,8.73586-2.31549l-17.47193,.00006c2.46056,1.45629,5.47619,2.31543,8.73608,2.31543Z" style="fill:#fff;"/></g><path d="M34.58691,7.70099h-6.74536l-2.29797-4.8125c-.55261-1.17578-1.79797-1.37561-3.12854-1.37561h-2.41504V12.48621c3.77954,0,6.89697-.82928,9.24561-1.91003,3.16687-1.45734,5.34131-2.87518,5.34131-2.87518Z" style="fill:#734600;"/><path d="M5.41309,7.70099h6.74536l2.29797-4.8125c.55261-1.17578,1.79797-1.37561,3.12854-1.37561h2.41504V12.48621c-3.77954,0-6.89697-.82928-9.24561-1.91003-3.16687-1.45734-5.34131-2.87518-5.34131-2.87518Z" style="fill:#734600;"/><polygon points="26.91999 5.81666 13.08015 5.81666 12.15944 7.70103 27.84159 7.70103 26.91999 5.81666" style="fill:#995607;"/></g><rect y="0" width="40" height="40" style="fill:none;"/></svg>

<svg id="Layer_1" data-name="Layer 1" xmlns="http://www.w3.org/2000/svg" viewBox="0 0 40 40"><defs><style>.cls-1{fill:#3a2202;}.cls-2{fill:#ffc84d;}.cls-3{fill:#ff6d00;}.cls-4{fill:#fff;}.cls-5{fill:#734600;}.cls-6{fill:#995607;}.cls-7{fill:none;}</style></defs><path class="cls-1" d="M4.781,8.407c.05-.352.335-.706.632-.706h7.3s-1.6,2.047-1.572,2.068l.405,5.255S4.44,10.782,4.781,8.407Z"/><path class="cls-1" d="M35.219,8.407c-.05-.352-.335-.706-.632-.706h-7.3s1.6,2.047,1.572,2.068l-.405,5.255S35.56,10.782,35.219,8.407Z"/><circle class="cls-2" cx="20" cy="22.487" r="16"/><ellipse cx="15.69" cy="18.123" rx="1.915" ry="2.494"/><ellipse cx="24.31" cy="18.123" rx="1.915" ry="2.494"/><path class="cls-3" d="M28.736,23.778a1.088,1.088,0,0,1,1.088,1.258c-.734,3.93-4.853,6.938-9.824,6.938s-9.09-3.008-9.824-6.938a1.088,1.088,0,0,1,1.088-1.258Z"/><path class="cls-4" d="M20,26.093a17.173,17.173,0,0,0,8.736-2.315H11.264A17.173,17.173,0,0,0,20,26.093Z"/><path class="cls-5" d="M34.587,7.7H27.842l-2.3-4.813c-.553-1.175-1.8-1.375-3.129-1.375H20V12.486a22.1,22.1,0,0,0,9.246-1.91A45.976,45.976,0,0,0,34.587,7.7Z"/><path class="cls-5" d="M5.413,7.7h6.745l2.3-4.813c.553-1.175,1.8-1.375,3.129-1.375H20V12.486a22.1,22.1,0,0,1-9.246-1.91A45.976,45.976,0,0,1,5.413,7.7Z"/><polygon class="cls-6" points="26.92 5.817 13.08 5.817 12.159 7.701 27.842 7.701 26.92 5.817"/><rect class="cls-7" width="40" height="40"/></svg>
